X: 103
M: C|
L: 1/16
K: G
V: 1
d2B2G2d2 B2G2d2B2 | c3ed3B c2A2 A2Bc | d3BG3d BG3d3B | c3ed3c B2G2 G2Bc |
dB3c3A B3Gd3B | c3ed3B A2AA A3G | E3GD3E C3DB,3D | GFED G2B,2 G,G,G,2 G,4 |]
V: 2 clef=bass middle=d
[B4G4][B4G4] [B4G4][B4G4] | G4G4 d4f4 | g4B4 c4B4 | c4d4 G4G4 :|
z2 |\
g4g4 g4g4 | e2c2B2G2 d4d4 | g4g4 g4B4 | A4d4 g4G4 |
g4f4 g4G4 | e2c2B2G2 d4z4 | c4B4 f4g4 | d4d4 G4G4 |]


